resources/images/CrownIcon.svg

<svg xmlns="http://www.w3.org/2000/svg" width="512" height="450" shape-rendering="geometricPrecision" image-rendering="optimizeQuality" fill-rule="evenodd" fill="#feea4f" xmlns:v="https://vecta.io/nano"><path d="M248.5-.5h11c19.319 5.9526 26.819 18.9526 22.5 39-2.716 7.3812-7.549 12.8812-14.5 16.5-.559.7247-.892 1.5581-1 2.5l20.5 94c2.807 13.755 9.307 25.255 19.5 34.5 10.171 5.131 19.504 3.798 28-4 10.722-9.63 19.388-20.796 26-33.5-13.306-15.202-13.306-30.369 0-45.5 16.065-10.1507 30.565-8.3174 43.5 5.5 9.587 19.233 5.087 34.066-13.5 44.5-5.423.627-10.589 1.794-15.5 3.5l-5 34c-1.307 10.912-.307 21.579 3 32 3.407 8.955 9.907 13.288 19.5 13 11.926-1.461 22.592-5.961 32-13.5l34-28c-6.971-12.133-6.471-23.966 1.5-35.5 11.782-11.124 24.948-12.957 39.5-5.5 5.828 4.305 9.828 9.805 12 16.5v16c-6.977 16.741-19.477 23.741-37.5 21L422.5 349l-336 .5-48.5-143c-18.4811 5.009-31.31441-1.324-38.5-19v-16c8.19791-18.926 22.1979-25.093 42-18.5 16.2565 11.191 19.9231 25.691 11 43.5 15.9555 12.443 32.6222 23.943 50 34.5 9.412 4.038 18.746 4.038 28 0 5.651-4.467 8.817-10.301 9.5-17.5.668-19.824-.832-39.491-4.5-59-20.757 1.749-32.423-7.751-35-28.5 4.108-23.434 17.775-32.4335 41-27 17.134 9.45 21.967 23.284 14.5 41.5l-7.5 9.5c6.892 10.231 14.558 19.898 23 29 6.081 6.207 13.415 10.041 22 11.5 5.304-.236 9.804-2.236 13.5-6 7.423-9.908 12.757-20.908 16-33l22.5-93c-5.848-3.333-11.015-7.6663-15.5-13-10.099-22.1113-3.932-37.44459 18.5-46zm175 450h-337v-61h337v61z"/></svg>

<?xml version="1.0" encoding="UTF-8"?>
<!DOCTYPE svg PUBLIC "-//W3C//DTD SVG 1.1//EN" "http://www.w3.org/Graphics/SVG/1.1/DTD/svg11.dtd">
<svg xmlns="http://www.w3.org/2000/svg" version="1.1" width="512px" height="450px" style="shape-rendering:geometricPrecision; text-rendering:geometricPrecision; image-rendering:optimizeQuality; fill-rule:evenodd; clip-rule:evenodd" xmlns:xlink="http://www.w3.org/1999/xlink">
<g><path fill="#feea4f" d="M 248.5,-0.5 C 252.167,-0.5 255.833,-0.5 259.5,-0.5C 278.819,5.4526 286.319,18.4526 282,38.5C 279.284,45.8812 274.451,51.3812 267.5,55C 266.941,55.7247 266.608,56.5581 266.5,57.5C 273.333,88.8333 280.167,120.167 287,151.5C 289.807,165.255 296.307,176.755 306.5,186C 316.671,191.131 326.004,189.798 334.5,182C 345.222,172.37 353.888,161.204 360.5,148.5C 347.194,133.298 347.194,118.131 360.5,103C 376.565,92.8493 391.065,94.6826 404,108.5C 413.587,127.733 409.087,142.566 390.5,153C 385.077,153.627 379.911,154.794 375,156.5C 373.24,167.82 371.573,179.154 370,190.5C 368.693,201.412 369.693,212.079 373,222.5C 376.407,231.455 382.907,235.788 392.5,235.5C 404.426,234.039 415.092,229.539 424.5,222C 435.833,212.667 447.167,203.333 458.5,194C 451.529,181.867 452.029,170.034 460,158.5C 471.782,147.376 484.948,145.543 499.5,153C 505.328,157.305 509.328,162.805 511.5,169.5C 511.5,174.833 511.5,180.167 511.5,185.5C 504.523,202.241 492.023,209.241 474,206.5C 456.963,254.069 439.796,301.569 422.5,349C 310.5,349.5 198.5,349.667 86.5,349.5C 70.6411,301.757 54.4744,254.09 38,206.5C 19.5189,211.509 6.68559,205.176 -0.5,187.5C -0.5,182.167 -0.5,176.833 -0.5,171.5C 7.69791,152.574 21.6979,146.407 41.5,153C 57.7565,164.191 61.4231,178.691 52.5,196.5C 68.4555,208.943 85.1222,220.443 102.5,231C 111.912,235.038 121.246,235.038 130.5,231C 136.151,226.533 139.317,220.699 140,213.5C 140.668,193.676 139.168,174.009 135.5,154.5C 114.743,156.249 103.077,146.749 100.5,126C 104.608,102.566 118.275,93.5665 141.5,99C 158.634,108.45 163.467,122.284 156,140.5C 153.486,143.678 150.986,146.844 148.5,150C 155.392,160.231 163.058,169.898 171.5,179C 177.581,185.207 184.915,189.041 193.5,190.5C 198.804,190.264 203.304,188.264 207,184.5C 214.423,174.592 219.757,163.592 223,151.5C 230.341,120.468 237.841,89.4681 245.5,58.5C 239.652,55.167 234.485,50.8337 230,45.5C 219.901,23.3887 226.068,8.05541 248.5,-0.5 Z"/></g>
<g><path fill="#feea4f" d="M 423.5,449.5 C 311.167,449.5 198.833,449.5 86.5,449.5C 86.5,429.167 86.5,408.833 86.5,388.5C 198.833,388.5 311.167,388.5 423.5,388.5C 423.5,408.833 423.5,429.167 423.5,449.5 Z"/></g>
</svg>
